src/reddit.svg

<svg viewBox="0 0 16 16" fill="none" xmlns="http://www.w3.org/2000/svg"><path d="M9 9C8.94997 8.87147 8.93846 8.73115 8.96687 8.59618C8.99528 8.46122 9.06239 8.33745 9.16 8.24C9.2552 8.13893 9.37905 8.06943 9.51491 8.04082C9.65077 8.01222 9.79214 8.02589 9.92 8.08C10.0473 8.13461 10.1558 8.22524 10.2322 8.34073C10.3086 8.45622 10.3495 8.59153 10.35 8.73C10.3523 8.82105 10.3357 8.9116 10.3013 8.99592C10.2668 9.08025 10.2153 9.15655 10.15 9.22C10.0825 9.28541 10.0048 9.33944 9.92 9.38C9.83326 9.41102 9.7421 9.4279 9.65 9.43C9.51153 9.42952 9.37622 9.38856 9.26073 9.31216C9.14524 9.23576 9.05461 9.12725 9 9Z" fill="#111111"/><path d="M6.4 10.32C6.44563 10.3061 6.49437 10.3061 6.54 10.32C6.64256 10.3982 6.75319 10.4653 6.87 10.52C6.98457 10.5796 7.10528 10.6265 7.23 10.66C7.35447 10.6962 7.4815 10.723 7.61 10.74C7.73981 10.75 7.87019 10.75 8 10.74C8.12957 10.755 8.26043 10.755 8.39 10.74C8.51928 10.7278 8.64676 10.7009 8.77 10.66C8.89472 10.6265 9.01543 10.5796 9.13 10.52C9.24432 10.4607 9.35456 10.3939 9.46 10.32C9.48028 10.3102 9.5025 10.3052 9.525 10.3052C9.5475 10.3052 9.56972 10.3102 9.59 10.32C9.62882 10.3063 9.67118 10.3063 9.71 10.32C9.72529 10.362 9.72529 10.408 9.71 10.45C9.71889 10.4688 9.72351 10.4892 9.72351 10.51C9.72351 10.5308 9.71889 10.5512 9.71 10.57C9.59012 10.6682 9.45924 10.7521 9.32 10.82C9.18644 10.894 9.04572 10.9543 8.9 11C8.7541 11.0497 8.6032 11.0832 8.45 11.1C8.29704 11.1152 8.14296 11.1152 7.99 11.1C7.83702 11.1147 7.68298 11.1147 7.53 11.1C7.22378 11.0592 6.92643 10.9679 6.65 10.83C6.51341 10.7574 6.38298 10.6738 6.26 10.58C6.24164 10.5636 6.22684 10.5436 6.21652 10.5212C6.2062 10.4989 6.20058 10.4746 6.2 10.45C6.20219 10.3993 6.22263 10.3512 6.25755 10.3144C6.29248 10.2777 6.33952 10.2548 6.39 10.25L6.4 10.32Z" fill="#111111"/><path d="M6.12 8.08C6.24635 8.04032 6.38127 8.03677 6.50953 8.06974C6.6378 8.10272 6.75428 8.17091 6.84582 8.26661C6.93736 8.36231 7.00031 8.48171 7.02755 8.61131C7.0548 8.7409 7.04525 8.87554 7 9C6.94539 9.12725 6.85476 9.23576 6.73927 9.31216C6.62378 9.38856 6.48847 9.42952 6.35 9.43C6.25343 9.43041 6.15792 9.40994 6.07 9.37C5.98037 9.33826 5.90093 9.283 5.84 9.21C5.79259 9.14762 5.75854 9.07613 5.74 9C5.72086 8.90765 5.72086 8.81235 5.74 8.72C5.73674 8.58838 5.77067 8.45851 5.83789 8.34531C5.9051 8.2321 6.00288 8.14015 6.12 8.08Z" fill="#111111"/><path d="M1 8C1 9.38447 1.41054 10.7378 2.17971 11.889C2.94888 13.0401 4.04213 13.9373 5.32122 14.4672C6.6003 14.997 8.00776 15.1356 9.36563 14.8655C10.7235 14.5954 11.9708 13.9287 12.9497 12.9497C13.9287 11.9708 14.5954 10.7235 14.8655 9.36563C15.1356 8.00776 14.997 6.6003 14.4672 5.32122C13.9373 4.04213 13.0401 2.94888 11.889 2.17971C10.7378 1.41054 9.38447 1 8 1C6.14348 1 4.36301 1.7375 3.05025 3.05025C1.7375 4.36301 1 6.14348 1 8ZM3.33 8C3.33689 7.79845 3.40457 7.60369 3.52414 7.44129C3.64371 7.27889 3.80959 7.15643 4 7.09C4.17306 7.01496 4.36204 6.98403 4.55 7C4.74284 7.03793 4.92023 7.13184 5.06 7.27C5.25963 7.13827 5.46664 7.01808 5.68 6.91C6.09788 6.71234 6.54269 6.57755 7 6.51C7.23437 6.4674 7.47182 6.44399 7.71 6.44L7.3 4.25L5.8 4.57C5.78532 4.73636 5.70993 4.89149 5.58821 5.00584C5.46649 5.12018 5.30695 5.18573 5.14 5.19C4.97382 5.20063 4.80941 5.15081 4.67708 5.04973C4.54475 4.94865 4.45345 4.80312 4.42 4.64C4.38486 4.4773 4.40884 4.30741 4.48764 4.1608C4.56645 4.01418 4.69492 3.90045 4.85 3.84C5.00596 3.78322 5.17675 3.78206 5.33347 3.83673C5.49018 3.8914 5.6232 3.99853 5.71 4.14L7.43 3.8H7.51C7.53572 3.78996 7.56428 3.78996 7.59 3.8L7.65 3.86C7.66004 3.88572 7.66004 3.91428 7.65 3.94L8.2 6.4C8.44458 6.39968 8.68876 6.41975 8.93 6.46C9.16656 6.50245 9.40032 6.55922 9.63 6.63C9.86119 6.69913 10.0855 6.78952 10.3 6.9C10.5206 7.00037 10.7315 7.12088 10.93 7.26C11.0359 7.15424 11.1641 7.0736 11.3053 7.024C11.4465 6.97441 11.597 6.95713 11.7458 6.97345C11.8945 6.98976 12.0377 7.03925 12.1648 7.11827C12.2918 7.19728 12.3996 7.30381 12.48 7.43C12.5652 7.55229 12.622 7.69208 12.6462 7.83915C12.6704 7.98622 12.6615 8.13684 12.62 8.28C12.5807 8.42311 12.5101 8.55568 12.4133 8.66811C12.3164 8.78053 12.1957 8.87 12.06 8.93V9C12.07 9.0495 12.07 9.1005 12.06 9.15V9.23C12.06 10.8 10.23 12.07 7.98 12.07C5.73 12.07 3.9 10.81 3.9 9.24C3.9 9.24 3.9 9.19 3.9 9.16V9C3.9 9 3.9 9 3.9 8.92C3.81269 8.87855 3.73185 8.82465 3.66 8.76C3.59177 8.69381 3.53137 8.61999 3.48 8.54C3.4273 8.45739 3.39003 8.36591 3.37 8.27C3.34238 8.1827 3.32888 8.09156 3.33 8Z" fill="#111111"/></svg>

<svg viewBox="0 0 16 16" fill="none" xmlns="http://www.w3.org/2000/svg"><path d="M9 9a.71.71 0 0 1 .16-.76.68.68 0 0 1 .76-.16.71.71 0 0 1 .381.916.662.662 0 0 1-.151.224.87.87 0 0 1-.23.16A.71.71 0 0 1 9 9Zm-2.6 1.32a.24.24 0 0 1 .14 0c.103.078.213.145.33.2.115.06.235.107.36.14.124.036.251.063.38.08.13.01.26.01.39 0 .13.015.26.015.39 0 .13-.012.257-.04.38-.08.125-.034.245-.08.36-.14.114-.06.225-.126.33-.2a.15.15 0 0 1 .13 0 .18.18 0 0 1 .12 0 .19.19 0 0 1 0 .13.14.14 0 0 1 0 .12c-.12.098-.25.182-.39.25a2.265 2.265 0 0 1-.42.18 2.108 2.108 0 0 1-.91.1 2.405 2.405 0 0 1-.46 0 2.8 2.8 0 0 1-.88-.27 2.844 2.844 0 0 1-.39-.25.18.18 0 0 1-.06-.13.21.21 0 0 1 .19-.2l.01.07Zm-.28-2.24A.71.71 0 0 1 7 9a.71.71 0 0 1-.65.43.67.67 0 0 1-.28-.06.53.53 0 0 1-.23-.16.57.57 0 0 1-.1-.21.69.69 0 0 1 0-.28.7.7 0 0 1 .38-.64Z" fill="#111111"/><path d="M1 8a7 7 0 1 0 14 0A7 7 0 0 0 1 8Zm2.33 0A1 1 0 0 1 4 7.09 1.14 1.14 0 0 1 4.55 7a1 1 0 0 1 .51.27c.2-.132.407-.252.62-.36A4.69 4.69 0 0 1 7 6.51a4.38 4.38 0 0 1 .71-.07L7.3 4.25l-1.5.32a.68.68 0 0 1-.66.62.69.69 0 0 1-.72-.55.7.7 0 0 1 .43-.8.72.72 0 0 1 .86.3l1.72-.34h.08a.11.11 0 0 1 .08 0l.06.06a.11.11 0 0 1 0 .08L8.2 6.4c.245 0 .489.02.73.06.237.042.47.1.7.17.231.07.455.16.67.27.22.1.431.22.63.36a1 1 0 0 1 1.55.17 1 1 0 0 1 .14.85 1.001 1.001 0 0 1-.56.65V9c.01.05.01.1 0 .15v.08c0 1.57-1.83 2.84-4.08 2.84S3.9 10.81 3.9 9.24v-.32a1 1 0 0 1-.24-.16 1.24 1.24 0 0 1-.18-.22.81.81 0 0 1-.11-.27.86.86 0 0 1-.04-.27Z" fill="#111111"/></svg>
